X:1
T:Title
%%score ( 1 2 ) { 3 | 4 }
L:1/8
Q:1/4=110
M:4/4
K:Ab
V:1 treble nm="Grand Piano, Unnamed-000"
V:2 treble 
V:3 bass nm="Choir Pad, Duane Street, LMD"
V:4 bass 
V:1
 [CE]2 [EA]2- [EA][Ec] [Ec]2 | [EA]2 [EB]2- [EB][Ed] [Ed]2 | [EB]2 [Ec]2- [Ec][EA] [DG]2 | %3
w: By~George~Coles,~1835 * * * *|||
 [CA]2 [EB]2 E2 E2 | ED [CA]2- [CA][Ec] [Ec]2 | [EA]2 [EB]2- [EB][Ed] [Ed]2 | z4 z2 .B2 | %7
w: ||||
 dB [EA]2 [EG]2 [EA]2- | [EA]4 [Ec]2 [Ee]2 | [Ec]2 [Ec]2 [Ee]2 [Ed]2 | [EB]2 [EB]2 [Ed]2 [Ec]2 | %11
w: ||||
 [EA]2 [DG]2 [CA]2 [EB]2 | E2 E2 ED [CA]2- | [CA][Ec] [Ec]2 [EA]2 [EB]2- | %14
w: |||
 [EB][Ed] [Ed]2 [EB]2 [Ec]2 | [EA]2 Bc dB [EA]2 | [EG]2 [EA]6- | [EA]2 z2 z4 |] %18
w: ||||
V:2
 x8 | x8 | x8 | x8 | x8 | x8 | [EB]2 [Ec]2 [EA]2 F-[Fc] | F2 z2 z4 | x8 | x8 | x8 | x8 | x8 | x8 | %14
 x8 | z2 F2 F2 z2 | x8 | x8 |] %18
V:3
 A,2 C2- CA, A,2 | A,2 G,2- G,B, B,2 | G,2 A,2- A,/ z/ C B,2 | A,2 G,2 G,2 G,B, | %4
 A,G, A,2- A,A, A,2 | A,2 G,2- G,B, B,2 | G,2 A,2 A,2 A,2 | B,[K:treble]D C2 B,2 C2- | %8
 C4[K:bass] A,2 C2 | A,2 A,2 C2 B,2 | G,2 G,2 B,2 A,2 | C2 B,2 A,2 G,2 | G,2 G,B, A,G, A,2- | %13
 A,A, A,2 A,2 G,2- | G,B, B,2 G,2 A,2 | A,2 A,2 B,[K:treble]D A,2 | B,2 C6- | C2 z2 z4 |] %18
V:4
 A,,2 A,,2- A,,A,, A,,2 | C,2 E,2- E,E, E,2 | E,2 z2 z A, E,2 | F,2 E,2 E,2 E,D, | %4
 C,B,, A,,2- A,,A,, A,,2 | C,2 E,2- E,E, E,2 | E,2 z2 C,2 D,2 | D,2 E,2 E,2 A,,2- | A,,4 z2 A,2 | %9
 z4 A,2 E,2 | E,2 E,2 G,2 z2 | A,2 E,2 F,2 E,2 | E,2 E,D, C,B,, A,,2- | A,,A,, A,,2 C,2 E,2- | %14
 E,E, E,2 E,2 z2 | C,2 D,2 D,2 E,2 | E,2 A,,6- | A,,2 z2 z4 |] %18

